lib/flags/l/HND.svg

<svg xmlns="http://www.w3.org/2000/svg" fill="none" viewBox="0 0 32 24"><mask id="HND_svg__a" width="32" height="24" x="0" y="0" mask-type="alpha" maskUnits="userSpaceOnUse"><path fill="#fff" d="M0 0H32V24H0z"/></mask><g mask="url(#HND_svg__a)"><path fill="#F7FCFF" fill-rule="evenodd" d="M0 0V24H32V0H0Z" clip-rule="evenodd"/><mask id="HND_svg__b" width="32" height="24" x="0" y="0" mask-type="alpha" maskUnits="userSpaceOnUse"><path fill="#fff" fill-rule="evenodd" d="M0 0V24H32V0H0Z" clip-rule="evenodd"/></mask><g fill="#4564F9" fill-rule="evenodd" clip-rule="evenodd" mask="url(#HND_svg__b)"><path d="M0 0V8H32V0H0zM0 16V24H32V16H0zM16.4021 12.6708 15.5356 13.118 15.7011 12.1708 15 11.4309H15.9688L16.4021 10.5 16.8354 11.4309H17.8042L17.1032 12.1708 17.2687 13.118 16.4021 12.6708zM10.3181 10.5027 9.45158 10.9499 9.61707 10.0027 8.91602 9.26281H9.88485L10.3181 8.33191 10.7514 9.26281H11.7202L11.0192 10.0027 11.1847 10.9499 10.3181 10.5027zM10.3181 14.7027 9.45158 15.1499 9.61707 14.2027 8.91602 13.4628H9.88485L10.3181 12.5319 10.7514 13.4628H11.7202L11.0192 14.2027 11.1847 15.1499 10.3181 14.7027zM22.3181 10.5027 21.4516 10.9499 21.6171 10.0027 20.916 9.26281H21.8849L22.3181 8.33191 22.7514 9.26281H23.7202L23.0192 10.0027 23.1847 10.9499 22.3181 10.5027zM22.3181 14.7027 21.4516 15.1499 21.6171 14.2027 20.916 13.4628H21.8849L22.3181 12.5319 22.7514 13.4628H23.7202L23.0192 14.2027 23.1847 15.1499 22.3181 14.7027z"/></g></g></svg>

<svg xmlns="http://www.w3.org/2000/svg" fill="none" viewBox="0 0 32 24"><mask id="HND_svg__a" width="32" height="24" x="0" y="0" maskUnits="userSpaceOnUse"><path fill="#fff" d="M0 0h32v24H0z"/></mask><g mask="url(#HND_svg__a)"><path fill="#F7FCFF" fill-rule="evenodd" d="M0 0v24h32V0H0z" clip-rule="evenodd"/><mask id="HND_svg__b" width="32" height="24" x="0" y="0" maskUnits="userSpaceOnUse"><path fill="#fff" fill-rule="evenodd" d="M0 0v24h32V0H0z" clip-rule="evenodd"/></mask><g fill="#4564F9" fill-rule="evenodd" clip-rule="evenodd" mask="url(#HND_svg__b)"><path d="M0 0v8h32V0H0zm0 16v8h32v-8H0zm16.402-3.33l-.866.448.165-.947-.701-.74h.969l.433-.931.433.93h.97l-.702.74.166.948-.867-.447zm-6.084-2.167l-.866.447.165-.947-.701-.74h.969l.433-.931.433.93h.97l-.702.74.166.948-.867-.447zm0 4.2l-.866.447.165-.947-.701-.74h.969l.433-.931.433.93h.97l-.702.74.166.948-.867-.447zm12-4.2l-.866.447.165-.947-.701-.74h.969l.433-.931.433.93h.97l-.702.74.166.948-.867-.447zm0 4.2l-.866.447.165-.947-.701-.74h.969l.433-.931.433.93h.97l-.702.74.166.948-.867-.447z"/></g></g></svg>
